X: 1
T: The Night Before Larry Was Stretched
R: slip jig
M: 9/8
L: 1/8
K: Emin
|:GFE EB,E E2 G|FED DA,D FGA|GFE EB,E E2 G|FGA ABG FED:|
|:G2 B BcA B3|G2B Bcd ecA|G2 B BcA Bcd|e2 A ABG FED:|


Tune 4712	Setting 29437

